public/svg/user_stories_7.svg

<svg width="161" height="63" viewBox="0 0 161 63" fill="none" xmlns="http://www.w3.org/2000/svg">
<path d="M59.1681 24.6098C58.6152 21.9376 58.0624 21.0469 54.9909 21.0469C53.7009 21.0469 52.6258 21.4154 51.9194 22.0297C51.3051 22.4905 50.9672 23.2276 50.9979 23.9955C51.0287 24.7634 51.3358 25.5005 51.8887 26.0841C52.5644 26.7291 53.5473 27.3127 55.1752 28.142C57.2023 29.1863 58.7381 29.7699 59.8438 31.0599C60.5503 31.9199 60.9188 33.0256 60.9496 34.1314C60.9803 35.4521 60.4581 36.7114 59.506 37.5714C58.4002 38.5543 56.7109 39.1993 54.4073 39.1993C52.7487 39.1686 51.1208 38.8615 49.5544 38.3086C49.3701 37.0186 49.0936 35.7285 48.6943 34.4692L49.6158 34.2235C50.3837 37.3871 51.858 38.155 54.5916 38.155C55.6973 38.1857 56.803 37.8479 57.6938 37.2029C58.5538 36.5578 59.0452 35.575 59.0145 34.5C59.0452 33.6399 58.7688 32.8106 58.1852 32.1963C57.3559 31.2135 55.943 30.5992 54.438 29.8313C52.8408 29.0327 50.6908 27.8656 49.9229 26.7905C49.4008 26.0534 49.1551 25.1934 49.1551 24.3026C49.1551 23.074 49.7386 21.9376 50.7215 21.2312C51.6737 20.494 53.0866 20.0026 55.1137 20.0026C56.588 19.9718 58.0624 20.2176 59.4445 20.7397C59.5981 21.8147 59.8438 23.1969 60.0588 24.3641L59.1681 24.6098Z" fill="#1B2738"/>
<path d="M64.881 32.9336C64.881 30.9371 65.2496 29.6471 65.956 28.7257C67.3074 27.3128 69.5189 27.2821 70.9318 28.6028C70.9625 28.6335 70.9932 28.6642 71.0547 28.7257C71.7611 29.6471 72.1297 30.9371 72.1297 32.9336C72.1297 35.0222 71.6997 36.3736 71.0239 37.1722C69.7339 38.5544 67.5532 38.6465 66.171 37.3258C66.1096 37.2644 66.0481 37.2029 66.0174 37.1722C65.3417 36.3429 64.881 35.0222 64.881 32.9336ZM63.0381 32.9029C63.0381 35.2679 63.6524 36.8037 64.666 37.7865C65.7103 38.708 66.9389 39.0765 68.5053 39.0765C70.1332 39.0765 71.4232 38.6465 72.4368 37.7251C73.4197 36.7729 74.0033 35.2372 74.0033 32.9029C74.0033 30.845 73.4197 29.2785 72.4368 28.2649C71.4232 27.3128 70.2254 26.8521 68.5053 26.8521C66.8467 26.8521 65.6488 27.3128 64.6353 28.2649C63.591 29.2478 63.0381 30.845 63.0381 32.9029Z" fill="#1B2738"/>
<path d="M77.5044 27.9576H75.6001V27.1283H77.5044V25.5005C77.5044 23.9033 77.9037 22.7361 78.7637 21.8454C80.1151 20.6475 82.0809 20.4939 83.6166 21.4461C84.3538 21.9375 84.7224 22.5825 84.7224 23.0433C84.7224 23.5654 84.4459 23.8419 83.9852 23.8419C83.3709 23.8419 83.1252 23.289 82.8487 22.7361C82.5723 22.1833 82.2345 21.6304 81.4359 21.6304C80.9444 21.6304 80.453 21.8147 80.1458 22.214C79.6237 22.8283 79.3165 23.7804 79.3165 25.6233V27.1591H82.5723V27.9884H79.2858V36.4656C79.2858 38.0321 79.378 38.1857 81.3437 38.1857V38.8307H75.5693V38.155C77.3815 38.155 77.5044 37.9707 77.5044 36.3735V27.9576Z" fill="#1B2738"/>
<path d="M83.7094 27.3433C85.3373 27.1897 86.4738 26.5754 86.7809 23.8418H87.4259V27.0976H90.1903V27.9269H87.4259V36.312C87.4259 37.5406 87.7945 38.1549 88.6852 38.1549C89.2688 38.1549 89.8524 37.9399 90.2824 37.5406L90.7124 38.1549C90.006 38.7692 89.1152 39.1071 88.1631 39.0763C86.8423 39.0763 85.6137 38.4621 85.6137 36.4349V27.9576H83.6787L83.7094 27.3433Z" fill="#1B2738"/>
<path d="M96.1794 22.3062C96.1794 21.5997 96.2716 21.3847 96.9473 21.3847H99.4045C101.217 21.3847 102.384 21.784 103.121 22.3983C103.766 23.0126 104.135 23.8726 104.135 24.7634C104.135 25.992 103.705 26.9134 102.937 27.5277C102.015 28.2956 100.541 28.6334 98.7595 28.6334H96.1487L96.1794 22.3062ZM94.2751 36.0664C94.2751 37.9093 94.1216 38.0322 92.1865 38.0322V38.8H100.633C103.336 38.8 104.872 38.1857 105.885 37.2029C106.837 36.2507 107.36 34.9607 107.329 33.6092C107.329 32.3499 106.715 31.152 105.67 30.4149C104.565 29.5549 103.06 29.1249 101.37 29.0634V29.002C102.998 28.7563 104.104 28.2341 104.872 27.5584C105.701 26.7905 106.192 25.7155 106.162 24.5791C106.162 23.3505 105.547 22.214 104.503 21.5383C103.09 20.6169 101.555 20.4019 99.1588 20.4019H92.1865V21.139C94.1216 21.139 94.2751 21.2619 94.2751 23.1355V36.0664ZM96.1794 29.647H99.4045C101.524 29.647 102.967 30.0156 103.858 30.722C104.78 31.3978 105.302 32.4421 105.302 33.5785C105.302 34.93 104.902 35.8821 104.288 36.5271C103.397 37.4486 102.23 37.8172 100.357 37.8172H97.1316C96.333 37.8172 96.1794 37.6329 96.1794 36.5271V29.647Z" fill="#1B2738"/>
<path d="M115.929 36.7419C115.284 37.3869 114.393 38.0933 113.134 38.0933C112.489 38.124 111.875 37.909 111.414 37.479C111.015 37.0183 110.8 36.4347 110.83 35.8511C110.83 34.6532 111.568 33.9775 112.55 33.4554C113.503 32.8718 114.793 32.5032 115.898 32.1961L115.929 36.7419ZM117.741 30.4453C117.741 29.3089 117.557 28.6024 116.881 27.8653C116.206 27.1281 115.315 26.8517 113.779 26.8517C112.735 26.821 111.721 27.0667 110.83 27.5888C110.001 28.0803 109.479 28.7867 109.479 29.401C109.448 29.7696 109.725 30.1075 110.124 30.1382C110.155 30.1382 110.185 30.1382 110.216 30.1382C110.615 30.1689 111.015 29.9232 111.138 29.5239C111.291 29.0324 111.568 28.6024 111.936 28.2646C112.428 27.8653 113.073 27.6503 113.687 27.681C114.547 27.681 115.161 27.9267 115.561 28.4489C115.898 28.8789 115.991 29.6774 115.991 30.261V31.3668L114.455 31.7353C113.103 31.9811 111.783 32.5032 110.615 33.2096C109.479 33.9468 109.018 34.899 109.018 36.0968C108.988 36.9569 109.387 37.7862 110.063 38.339C110.738 38.8612 111.598 39.1376 112.458 39.1069C113.81 39.1683 115.131 38.6462 116.083 37.6633H116.175C116.421 38.5233 116.943 38.984 117.864 38.984C118.417 38.984 118.97 38.8612 119.431 38.6155L119.277 38.0319C119.062 38.1547 118.816 38.2162 118.571 38.2162C118.048 38.2162 117.803 37.694 117.803 36.5268L117.741 30.4453Z" fill="#1B2738"/>
<path d="M130.948 36.4657C130.948 37.9093 131.071 38.1243 132.208 38.1243V38.7693H127.815V38.155C129.075 38.155 129.136 38.0014 129.136 36.435V30.6299C129.136 29.6163 129.013 28.787 128.522 28.2648C128.123 27.8963 127.57 27.712 127.017 27.7427C125.911 27.7427 124.744 28.7256 123.73 30.1692V36.4043C123.73 37.9707 123.761 38.1243 124.959 38.1243V38.7693H120.413V38.155C121.795 38.155 121.918 38.0014 121.918 36.435V30.1077C121.918 28.6027 121.795 28.4184 120.413 28.4491V27.8655C121.55 27.6813 122.44 27.4355 123.3 26.7905L123.546 26.9441L123.638 28.9406H123.7C124.744 27.6198 126.065 26.7905 127.477 26.7905C128.583 26.7905 129.382 27.067 129.965 27.6198C130.549 28.1727 130.887 29.1249 130.887 30.507L130.948 36.4657Z" fill="#1B2738"/>
<path d="M137 32.4115L140.716 28.7871C141.423 28.1421 141.607 27.7428 140.348 27.7428V27.0978H144.187V27.7428C143.511 27.7428 142.866 28.0193 142.436 28.5107L139.703 31.0907L143.665 37.1108C144.248 38.0323 144.801 38.1244 145.569 38.0937V38.7387H142.621L138.413 32.1965L136.969 33.6401V36.3737C136.969 37.8787 137.03 38.0937 138.443 38.0937V38.7387H133.621V38.1551C135.126 38.1551 135.157 37.9401 135.157 36.4351V24.1492C135.157 22.6442 135.003 22.4599 133.621 22.4599V21.8763C134.727 21.7534 135.802 21.3849 136.723 20.8013L136.969 20.9548V32.4115H137Z" fill="#1B2738"/>
<path d="M40.9233 20.0332H15V26.4219H40.9233V20.0332Z" fill="#1B2738"/>
<path d="M40.9233 32.7798H15V39.1685H40.9233V32.7798Z" fill="#1B2738"/>
<path d="M118.171 44.1753C119.553 44.1753 120.506 45.1889 120.506 46.571C120.567 47.8611 119.553 48.9361 118.263 48.9975C116.973 49.0589 115.898 48.0454 115.837 46.7553C115.837 46.6939 115.837 46.6325 115.837 46.571C115.837 45.1582 116.789 44.1753 118.171 44.1753ZM118.171 48.2911C119.154 48.2911 119.615 47.4003 119.615 46.571C119.615 45.711 119.093 44.851 118.171 44.851C117.25 44.851 116.728 45.711 116.728 46.571C116.728 47.4003 117.188 48.2911 118.171 48.2911Z" fill="#1B2738"/>
<path d="M121.55 42.4551H122.41V44.9123H122.441C122.717 44.4823 123.147 44.1751 123.976 44.1751C125.297 44.1751 125.973 45.2808 125.973 46.5094C125.973 47.738 125.389 48.9973 124.007 48.9973C123.393 49.028 122.809 48.7516 122.441 48.2295H122.41V48.8745H121.611L121.55 42.4551ZM123.731 44.8508C122.809 44.8508 122.379 45.7108 122.379 46.5709C122.379 47.3387 122.778 48.2909 123.731 48.2909C124.683 48.2909 125.021 47.2773 124.99 46.5401C125.021 45.7108 124.652 44.8508 123.731 44.8508Z" fill="#1B2738"/>
<path d="M129.197 44.1753C130.58 44.1753 131.532 45.1889 131.532 46.571C131.593 47.8611 130.58 48.9361 129.289 48.9975C127.999 49.0589 126.924 48.0454 126.863 46.7553C126.863 46.6939 126.863 46.6325 126.863 46.571C126.832 45.1582 127.784 44.1753 129.197 44.1753ZM129.197 48.2911C130.18 48.2911 130.641 47.4003 130.641 46.571C130.641 45.711 130.119 44.851 129.197 44.851C128.276 44.851 127.754 45.711 127.754 46.571C127.754 47.4003 128.184 48.2911 129.197 48.2911Z" fill="#1B2738"/>
<path d="M135.033 44.9736H133.805V47.4922C133.743 47.8915 134.051 48.26 134.45 48.3215C134.481 48.3215 134.511 48.3215 134.542 48.3215C134.757 48.3215 134.941 48.26 135.126 48.1679V48.8743C134.88 48.9358 134.665 48.9972 134.419 48.9972C133.559 48.9972 133.006 48.5979 133.006 47.6765V45.0043H131.962V44.3285H133.006V43.2842L133.866 43.0078V44.3285H135.095L135.033 44.9736Z" fill="#1B2738"/>
<path d="M137.214 43.4072H136.262V42.4551H137.214V43.4072ZM136.323 44.2673H137.183V48.8745H136.323V44.2673Z" fill="#1B2738"/>
<path d="M141.576 45.0353C141.299 44.9124 140.961 44.851 140.654 44.8203C139.702 44.8203 139.18 45.6803 139.18 46.5403C139.18 47.3696 139.61 48.2604 140.716 48.2604C141.053 48.2604 141.361 48.1682 141.637 48.0146L141.698 48.7825C141.361 48.9054 140.992 48.9975 140.623 48.9668C139.333 48.9668 138.289 47.9532 138.289 46.6632C138.289 46.6325 138.289 46.6018 138.289 46.571C138.289 45.1889 139.211 44.1753 140.623 44.1753C140.961 44.1753 141.33 44.2367 141.637 44.3596L141.576 45.0353Z" fill="#1B2738"/>
<path d="M110.83 42.4556H112.397C113.656 42.4556 114.884 42.6706 114.884 44.1756C114.884 44.9128 114.301 45.5578 113.564 45.6499V45.6806C113.84 45.8035 113.994 45.9263 114.178 46.3256L115.376 48.875H114.332L113.349 46.6635C113.072 46.0492 112.765 46.0492 112.274 46.0492H111.752V48.875H110.83V42.4556ZM111.752 45.2199H112.519C113.379 45.2199 113.902 44.8513 113.902 44.237C113.902 43.6227 113.472 43.2849 112.612 43.2849H111.752V45.2199Z" fill="#1B2738"/>
<path d="M142.651 47.9532C142.989 48.1375 143.388 48.2604 143.788 48.2911C144.218 48.2911 144.709 48.1375 144.709 47.6461C144.709 46.8168 142.59 46.8782 142.59 45.5882C142.59 44.636 143.358 44.1753 144.31 44.1753C144.678 44.1753 145.078 44.2367 145.446 44.3596L145.385 45.0967C145.078 44.9739 144.74 44.8817 144.402 44.851C143.941 44.851 143.511 45.0353 143.511 45.4039C143.511 46.3253 145.631 46.0796 145.631 47.5232C145.631 48.5061 144.863 48.9668 143.972 48.9668C143.511 48.9975 143.051 48.9054 142.621 48.7211L142.651 47.9532Z" fill="#1B2738"/>
</svg>

<svg xmlns="http://www.w3.org/2000/svg" width="161" height="63" fill="#1b2738"  xmlns:v="https://vecta.io/nano"><path d="M59.168 24.61c-.553-2.672-1.106-3.563-4.177-3.563-1.29 0-2.365.369-3.072.983-.614.461-.952 1.198-.922 1.966a3.21 3.21 0 0 0 .891 2.089c.676.645 1.659 1.229 3.286 2.058 2.027 1.044 3.563 1.628 4.669 2.918.706.86 1.075 1.966 1.106 3.072.031 1.321-.491 2.58-1.444 3.44-1.106.983-2.795 1.628-5.099 1.628a15.41 15.41 0 0 1-4.853-.891c-.184-1.29-.461-2.58-.86-3.839l.922-.246c.768 3.164 2.242 3.932 4.976 3.932a5.08 5.08 0 0 0 3.102-.952c.86-.645 1.351-1.628 1.321-2.703.031-.86-.246-1.689-.829-2.304-.829-.983-2.242-1.597-3.747-2.365-1.597-.799-3.747-1.966-4.515-3.041-.522-.737-.768-1.597-.768-2.488a3.77 3.77 0 0 1 1.566-3.071c.952-.737 2.365-1.229 4.392-1.229a11.58 11.58 0 0 1 4.331.737l.614 3.624-.891.246zm5.713 8.324c0-1.996.369-3.286 1.075-4.208 1.351-1.413 3.563-1.444 4.976-.123l.123.123c.706.921 1.075 2.211 1.075 4.208 0 2.089-.43 3.44-1.106 4.239-1.29 1.382-3.471 1.474-4.853.154l-.154-.154c-.676-.829-1.136-2.15-1.136-4.239zm-1.843-.031c0 2.365.614 3.901 1.628 4.884 1.044.922 2.273 1.29 3.839 1.29 1.628 0 2.918-.43 3.932-1.351.983-.952 1.566-2.488 1.566-4.822 0-2.058-.584-3.624-1.566-4.638-1.014-.952-2.211-1.413-3.931-1.413-1.659 0-2.857.461-3.87 1.413-1.044.983-1.597 2.58-1.597 4.638zm14.466-4.945H75.6v-.829h1.904v-1.628c0-1.597.399-2.764 1.259-3.655 1.351-1.198 3.317-1.352 4.853-.399.737.491 1.106 1.136 1.106 1.597 0 .522-.276.799-.737.799-.614 0-.86-.553-1.137-1.106s-.614-1.106-1.413-1.106c-.492 0-.983.184-1.29.584-.522.614-.829 1.566-.829 3.409v1.536h3.256v.829h-3.287v8.477c0 1.566.092 1.72 2.058 1.72v.645h-5.774v-.676c1.812 0 1.935-.184 1.935-1.782v-8.416zm6.205-.615c1.628-.154 2.764-.768 3.072-3.501h.645v3.256h2.764v.829h-2.764v8.385c0 1.229.369 1.843 1.259 1.843.584 0 1.167-.215 1.597-.614l.43.614c-.706.614-1.597.952-2.549.921-1.321 0-2.549-.614-2.549-2.641v-8.477h-1.935l.031-.614zm12.47-5.037c0-.707.092-.922.768-.922h2.457c1.813 0 2.98.399 3.716 1.014.645.614 1.014 1.474 1.014 2.365 0 1.229-.43 2.15-1.198 2.764-.922.768-2.396 1.106-4.177 1.106h-2.611l.031-6.327zm-1.904 13.76c0 1.843-.153 1.966-2.089 1.966v.768h8.447c2.703 0 4.239-.614 5.252-1.597a4.91 4.91 0 0 0 1.444-3.594c0-1.259-.614-2.457-1.659-3.194-1.105-.86-2.61-1.29-4.3-1.351v-.061c1.628-.246 2.734-.768 3.502-1.444.829-.768 1.32-1.843 1.29-2.979 0-1.229-.615-2.365-1.659-3.041-1.413-.921-2.948-1.136-5.344-1.136h-6.972v.737c1.935 0 2.089.123 2.089 1.997v12.931zm1.904-6.419h3.225c2.12 0 3.563.369 4.454 1.075.922.676 1.444 1.72 1.444 2.856 0 1.352-.4 2.304-1.014 2.949-.891.922-2.058 1.29-3.931 1.29h-3.225c-.799 0-.952-.184-.952-1.29v-6.88zm19.75 7.095c-.645.645-1.536 1.351-2.795 1.351-.645.031-1.259-.184-1.72-.614-.399-.461-.614-1.044-.584-1.628 0-1.198.738-1.874 1.72-2.396.953-.584 2.243-.952 3.348-1.259l.031 4.546zm1.812-6.297c0-1.136-.184-1.843-.86-2.58s-1.566-1.014-3.102-1.014c-1.044-.031-2.058.215-2.949.737-.829.492-1.351 1.198-1.351 1.812-.031.369.246.707.645.737h.092c.399.031.799-.215.922-.614a2.85 2.85 0 0 1 .798-1.259c.492-.399 1.137-.614 1.751-.584.86 0 1.474.246 1.874.768.337.43.43 1.229.43 1.812v1.106l-1.536.368c-1.352.246-2.672.768-3.84 1.474-1.136.737-1.597 1.689-1.597 2.887-.03.86.369 1.689 1.045 2.242.675.522 1.535.799 2.395.768a4.75 4.75 0 0 0 3.625-1.444h.092c.246.86.768 1.321 1.689 1.321.553 0 1.106-.123 1.567-.369l-.154-.584a1.43 1.43 0 0 1-.706.184c-.523 0-.768-.522-.768-1.689l-.062-6.082zm13.207 6.021c0 1.444.123 1.659 1.26 1.659v.645h-4.393v-.614c1.26 0 1.321-.154 1.321-1.72V30.63c0-1.014-.123-1.843-.614-2.365-.399-.369-.952-.553-1.505-.522-1.106 0-2.273.983-3.287 2.427v6.235c0 1.566.031 1.72 1.229 1.72v.645h-4.546v-.614c1.382 0 1.505-.154 1.505-1.72v-6.327c0-1.505-.123-1.689-1.505-1.659v-.584c1.137-.184 2.027-.43 2.887-1.075l.246.154.092 1.997h.062c1.044-1.321 2.365-2.15 3.777-2.15 1.106 0 1.905.276 2.488.829s.922 1.505.922 2.887l.061 5.959zM137 32.411l3.716-3.624c.707-.645.891-1.044-.368-1.044v-.645h3.839v.645c-.676 0-1.321.277-1.751.768l-2.733 2.58 3.962 6.02c.583.922 1.136 1.014 1.904.983v.645h-2.948l-4.208-6.542-1.444 1.444v2.734c0 1.505.061 1.72 1.474 1.72v.645h-4.822v-.584c1.505 0 1.536-.215 1.536-1.72V24.149c0-1.505-.154-1.689-1.536-1.689v-.584c1.106-.123 2.181-.491 3.102-1.075l.246.153v11.457H137zM40.923 20.033H15v6.389h25.923v-6.389zm0 12.747H15v6.389h25.923V32.78zm77.248 11.395c1.382 0 2.335 1.014 2.335 2.396.061 1.29-.953 2.365-2.243 2.427s-2.365-.952-2.426-2.242v-.184c0-1.413.952-2.396 2.334-2.396zm0 4.116c.983 0 1.444-.891 1.444-1.72 0-.86-.522-1.72-1.444-1.72s-1.443.86-1.443 1.72c0 .829.46 1.72 1.443 1.72zm3.379-5.836h.86v2.457h.031c.276-.43.706-.737 1.535-.737 1.321 0 1.997 1.106 1.997 2.334s-.584 2.488-1.966 2.488a1.79 1.79 0 0 1-1.566-.768h-.031v.645h-.799l-.061-6.419zm2.181 2.396c-.922 0-1.352.86-1.352 1.72 0 .768.399 1.72 1.352 1.72s1.29-1.014 1.259-1.751c.031-.829-.338-1.689-1.259-1.689zm5.466-.676c1.383 0 2.335 1.014 2.335 2.396.061 1.29-.952 2.365-2.243 2.427s-2.365-.952-2.426-2.242v-.184c-.031-1.413.921-2.396 2.334-2.396zm0 4.116c.983 0 1.444-.891 1.444-1.72 0-.86-.522-1.72-1.444-1.72s-1.443.86-1.443 1.72c0 .829.43 1.72 1.443 1.72zm5.836-3.317h-1.228v2.519c-.062.399.246.768.645.829h.092c.215 0 .399-.062.584-.154v.706c-.246.062-.461.123-.707.123-.86 0-1.413-.399-1.413-1.321v-2.672h-1.044v-.676h1.044v-1.044l.86-.276v1.321h1.229l-.062.645zm2.181-1.567h-.952v-.952h.952v.952zm-.891.86h.86v4.607h-.86v-4.607zm5.253.768c-.277-.123-.615-.184-.922-.215-.952 0-1.474.86-1.474 1.72 0 .829.43 1.72 1.536 1.72a1.87 1.87 0 0 0 .921-.246l.061.768c-.337.123-.706.215-1.075.184-1.29 0-2.334-1.014-2.334-2.304v-.092c0-1.382.922-2.396 2.334-2.396a2.82 2.82 0 0 1 1.014.184l-.061.676zm-30.746-2.579h1.567c1.259 0 2.487.215 2.487 1.72 0 .737-.583 1.382-1.32 1.474v.031c.276.123.43.246.614.645l1.198 2.549h-1.044l-.983-2.212c-.277-.614-.584-.614-1.075-.614h-.522v2.826h-.922v-6.419zm.922 2.764h.767c.86 0 1.383-.369 1.383-.983s-.43-.952-1.29-.952h-.86v1.935zm30.899 2.733c.338.184.737.307 1.137.338.43 0 .921-.154.921-.645 0-.829-2.119-.768-2.119-2.058 0-.952.768-1.413 1.72-1.413a3.66 3.66 0 0 1 1.136.184l-.061.737a3.55 3.55 0 0 0-.983-.246c-.461 0-.891.184-.891.553 0 .921 2.12.676 2.12 2.119 0 .983-.768 1.444-1.659 1.444-.461.031-.921-.061-1.351-.246l.03-.768z"/></svg>
